navigator-task/img/icons/hospital.svg

<svg width="51" height="51" viewBox="0 0 51 51" fill="none" xmlns="http://www.w3.org/2000/svg">
<path d="M28.9 8.50015V3.40015H22.1V8.50015H17V15.3001H22.1V20.4001H28.9V15.3001H34V8.50015H28.9ZM32.3 13.6001H27.2V18.7001H23.8V13.6001H18.7V10.2001H23.8V5.10015H27.2V10.2001H32.3V13.6001Z" fill="#675A54"/>
<path d="M37.3999 18.7V0H13.6V18.7H1.69995V51H49.2999V18.7H37.3999ZM13.6 49.3H3.39995V20.4H13.6V49.3ZM24.65 49.3H20.4V34H24.65V49.3ZM30.6 49.3H26.35V34H30.6V49.3ZM35.7 49.3H32.2999V32.3H18.7V49.3H15.3V1.7H35.7V49.3ZM47.5999 49.3H37.3999V20.4H47.5999V49.3Z" fill="#675A54"/>
</svg>

<svg width="51" height="51" fill="none" xmlns="http://www.w3.org/2000/svg"><path d="M28.9 8.5V3.4h-6.8v5.1H17v6.8h5.1v5.1h6.8v-5.1H34V8.5h-5.1zm3.4 5.1h-5.1v5.1h-3.4v-5.1h-5.1v-3.4h5.1V5.1h3.4v5.1h5.1v3.4z" fill="#675A54"/><path d="M37.4 18.7V0H13.6v18.7H1.7V51h47.6V18.7H37.4zM13.6 49.3H3.4V20.4h10.2v28.9zm11.05 0H20.4V34h4.25v15.3zm5.95 0h-4.25V34h4.25v15.3zm5.1 0h-3.4v-17H18.7v17h-3.4V1.7h20.4v47.6zm11.9 0H37.4V20.4h10.2v28.9z" fill="#675A54"/></svg>
